X:1
T:Can she excuse my wrongs
T:Can she excuse my wrongs
T:John Dowland
C:John Dowland
L:1/8
Q:1/4=120
M:3/2
K:C
V:1 tab stafflines=6 strings=D2,G2,C3,F3,A3,D4,G4 nostems nm="Lute" snm="Lt."
V:1
|: [!5!D,!3!A,!2!F]4 [!5!D,!3!A,!2!F]2 !2!E2 !2!F2 [!5!E,!1!G]2 | %1
 [!4!F,!3!C!2!F!1!A]6 !1!_B4 !1!A2 | %2
 [!4!F,!3!A,!2!F!1!c]4 [!5!C,!3!C!2!E!1!c]4 [!5!D,!3!A,!2!F!1!A]4 | [!6!A,,!3!^C!2!E!1!A]12 | %4
 [!6!A,,!4!A,!2!E!1!A]3 !1!G [!5!D,!3!A,!2!F]2 [!6!G,,!3!_B,!2!D!1!G]2- [!6!G,,!3!B,!2!D!1!G] !2!F [!5!C,!2!E]2 | %5
 [!7!F,,!3!A,!2!F]6 !2!E2 [!6!_B,,!2!D]4 | [!6!G,,!4!G,!3!_B,!2!D]4 [!6!A,,!5!E,!3!D]4 !3!^C4 | %7
 [!5!D,!3!A,!2!D]4 !7!D,,4 [!3!A,!2!D]4 :: %8
 [!4!A,!3!^C]3 !2!D !2!E2 !4!G,2 [!4!F,!2!D]2 [!5!E,!3!C]2 | %9
 [!5!D,!3!A,!2!D]4 [!5!^C,!3!A,!2!E]2 [!5!D,!3!A,!2!F]4 !2!D2 | %10
 [!5!C,!3!C!2!E]2 !2!F2 !1!G2 [!7!F,,!1!A]2 [!6!G,,!3!_B,!2!D!1!G]2 !2!F2 | %11
 [!6!A,,!4!A,!3!^C!2!E]12 | %12
 [!6!A,,!4!A,!2!E!1!A]3 !1!G [!5!D,!3!A,!2!F]2 [!6!G,,!4!G,!2!D!1!G]2- [!6!G,,!4!G,!2!D!1!G] !2!F [!5!C,!2!E]2 | %13
 [!7!F,,!3!C!2!F]6 !1!A2 [!6!G,,!3!_B,!2!E!1!G]2 !2!D2 | %14
 [!6!A,,!3!^C]2 !2!F2 !6!_B,,2 !2!D2 !2!F2 !1!G2 | %15
 !6!A,,2 [!3!^C!2!E!1!A]2 !4!A,2 !6!A,,2 [!3!C!2!E!1!A]4 :: %16
 [!4!F,!3!A,]3 !3!B, !3!C2 !2!D2 !4!F,2 !3!C2 | [!4!F,!2!F]4 !2!E2 !2!D2 !4!F,2 !3!C2 | %18
 [!4!G,!3!B,]3 !3!C !2!D2 !2!E2 !4!G,2 !2!D2 | [!4!G,!1!G]4 !2!F2 !2!E2 !4!G,2 !2!D2 | %20
 [!4!A,!3!^C]3 !2!D !2!E2 !6!A,,2 !2!F2 !2!G2 | %21
 [!6!A,,!3!^C!2!E]3 !2!G !2!F2 !3!D2 [!6!A,,!3!C]2 !2!E2 | %22
 [!5!D,!3!A,!2!D]3 !5!E, !4!^F,2 [!4!G,!3!B,!2!D]2 !5!E,2 !3!^C2 | %23
 !5!D,2 !2!D2 !3!A,2 !5!D,2 [!3!A,!2!D]4 :| %24

